images/logos/Neovim_logo.svg

<?xml version="1.0" encoding="UTF-8" standalone="no"?>
<svg width="742px" height="214px" viewBox="0 0 742 214" version="1.1" xmlns="http://www.w3.org/2000/svg" xmlns:xlink="http://www.w3.org/1999/xlink" xmlns:sketch="http://www.bohemiancoding.com/sketch/ns">
    <title>neovim-logo@2x</title>
    <description>Created with Sketch (http://www.bohemiancoding.com/sketch)</description>
    <defs>
        <linearGradient x1="50%" y1="0%" x2="50%" y2="100%" id="linearGradient-1">
            <stop stop-color="#16B0ED" stop-opacity="0.800235524" offset="0%"></stop>
            <stop stop-color="#0F59B2" stop-opacity="0.83700023" offset="100%"></stop>
        </linearGradient>
        <linearGradient x1="50%" y1="0%" x2="50%" y2="100%" id="linearGradient-2">
            <stop stop-color="#7DB643" offset="0%"></stop>
            <stop stop-color="#367533" offset="100%"></stop>
        </linearGradient>
        <linearGradient x1="50%" y1="0%" x2="50%" y2="100%" id="linearGradient-3">
            <stop stop-color="#88C649" stop-opacity="0.8" offset="0%"></stop>
            <stop stop-color="#439240" stop-opacity="0.84" offset="100%"></stop>
        </linearGradient>
    </defs>
    <g id="Page-1" stroke="none" stroke-width="1" fill="none" fill-rule="evenodd" sketch:type="MSPage">
        <g id="mark" sketch:type="MSLayerGroup" transform="translate(1.000000, 1.000000)">
            <path d="M0.0271406286,45.4585443 L45.2236471,-0.172976207 L45.2236462,211.998335 L0.0271406286,166.893838 L0.0271406286,45.4585443 Z" id="Left---green" fill="url(#linearGradient-1)" sketch:type="MSShapeGroup"></path>
            <path d="M129.336706,45.889361 L175.152342,-0.148332039 L174.223646,211.998335 L129.027141,166.893838 L129.336706,45.889361 Z" id="Right---blue" fill="url(#linearGradient-2)" sketch:type="MSShapeGroup" transform="translate(152.000000, 106.000000) scale(-1, 1) translate(-152.000000, -106.000000) "></path>
            <path d="M45.1935106,-0.136678135 L162.699692,179.17338 L129.817917,212.054331 L12.2502441,33.141173 L45.1935106,-0.136678135 Z" id="Cross---blue" fill="url(#linearGradient-3)" sketch:type="MSShapeGroup"></path>
            <path d="M45.2339478,83.0321045 L45.1714478,90.0946045 L8.89086914,36.5321045 L12.2502441,33.1099243 L45.2339478,83.0321045 Z" id="Shadow" fill-opacity="0.13" fill="#000000" sketch:type="MSShapeGroup"></path>
        </g>
        <g id="wordmark" sketch:type="MSLayerGroup" transform="translate(227.000000, 30.000000)" fill="#444444">
            <g id="Group" sketch:type="MSShapeGroup">
                <g transform="translate(0.000000, 29.000000)">
                    <path d="M0,95 L0,5.44015826 L4.65473146,5.44015826 C6.20511509,5.44015826 7.10025575,6.19084075 7.34015345,7.69040554 L8.14578005,21.1918892 C12.2043478,16.0325223 16.9324808,11.8758655 22.3337596,8.72551929 C27.7332481,5.5751731 33.7468031,4 40.370844,4 C45.2636829,4 49.5764706,4.78128586 53.3056266,6.34025717 C57.0347826,7.90102868 60.1230179,10.151276 62.5703325,13.090999 C65.0176471,16.0325223 66.8670077,19.5717112 68.1202046,23.7121662 C69.3734015,27.8526212 70,32.5331355 70,37.7537092 L70,95 L61.4961637,95 L61.4961637,37.7537092 C61.4961637,29.352186 59.5859335,22.7670623 55.7672634,17.9965381 C51.9468031,13.2260138 46.0997442,10.8407517 38.2225064,10.8407517 C32.371867,10.8407517 26.943734,12.3565183 21.9309463,15.3862512 C16.9181586,18.4177844 12.4424552,22.5726409 8.50383632,27.8526212 L8.50383632,95 L0,95 L0,95 Z" id="Shape"></path>
                    <path d="M123.62381,4 C128.690476,4 133.378952,4.86789063 137.692857,6.60546875 C142.004952,8.34304687 145.745238,10.8730469 148.911905,14.1972656 C152.078571,17.5214844 154.550381,21.609375 156.330952,26.4609375 C158.109714,31.3125 159,36.8828125 159,43.171875 C159,44.4889844 158.804571,45.3874219 158.411905,45.8671875 C158.019238,46.3469531 157.40219,46.5859375 156.560762,46.5859375 L91.5952381,46.5859375 L91.5952381,48.2929687 C91.5952381,55.0007031 92.3787619,60.9016406 93.947619,65.9921875 C95.5146667,71.0827344 97.747619,75.3503125 100.642857,78.7949219 C103.538095,82.2395312 107.035905,84.8288281 111.138095,86.5664062 C115.238476,88.3039844 119.82381,89.171875 124.890476,89.171875 C129.414286,89.171875 133.335524,88.6777344 136.652381,87.6894531 C139.969238,86.7011719 142.759524,85.5925 145.021429,84.3652344 C147.283333,83.1379687 149.078381,82.0292969 150.404762,81.0410156 C151.731143,80.0527344 152.697429,79.5585937 153.3,79.5585937 C154.083524,79.5585937 154.687905,79.8586719 155.109524,80.4570312 L157.461905,83.3320312 C156.014286,85.1289062 154.09981,86.8071875 151.716667,88.3632812 C149.333524,89.9211719 146.678952,91.2544531 143.754762,92.3613281 C140.828762,93.47 137.692857,94.3522656 134.345238,95.0117187 C130.997619,95.669375 127.635524,96 124.257143,96 C118.104762,96 112.495238,94.93625 107.428571,92.8105469 C102.361905,90.6848438 98.013619,87.5852344 94.3855238,83.5117188 C90.755619,79.4382031 87.9508571,74.451875 85.9712381,68.5527344 C83.9898095,62.6535938 83,55.8991406 83,48.2929688 C83,41.8853125 83.9192381,35.97 85.7595238,30.5488281 C87.5998095,25.1276563 90.2525714,20.4557813 93.7214286,16.5332031 C97.1884762,12.610625 101.440857,9.5415625 106.478571,7.32421875 C111.512667,5.10867188 117.228952,4 123.62381,4 L123.62381,4 Z M124.196641,10 C119.501069,10 115.292824,10.7017544 111.57374,12.1052632 C107.852824,13.5087719 104.637557,15.5263158 101.924275,18.1578947 C99.2109924,20.7894737 97.0161832,23.9473684 95.3380153,27.6315789 C93.6598473,31.3157895 92.5496183,35.4385965 92,40 L152,40 C152,35.3210526 151.327634,31.1263158 149.986565,27.4122807 C148.643664,23.7 146.754809,20.5561404 144.316336,17.9824561 C141.877863,15.4105263 138.950229,13.4368421 135.535267,12.0614035 C132.122137,10.6877193 128.342595,10 124.196641,10 L124.196641,10 Z" id="Shape"></path>
                    <path d="M208.545755,4 C215.072282,4 220.914311,5.0925 226.070011,7.27929687 C231.223881,9.46609375 235.570628,12.5657031 239.110254,16.578125 C242.648049,20.5905469 245.347607,25.4277344 247.208931,31.0878906 C249.070254,36.7480469 250,43.0820313 250,50.0898437 C250,57.0976562 249.068423,63.4172656 247.208931,69.046875 C245.347607,74.6782813 242.648049,79.4992969 239.110254,83.5117188 C235.570628,87.5241406 231.223881,90.609375 226.070011,92.765625 C220.914311,94.921875 215.072282,96 208.545755,96 C202.017398,96 196.1772,94.921875 191.021499,92.765625 C185.865799,90.609375 181.50441,87.5241406 177.935502,83.5117188 C174.366593,79.4992969 171.650562,74.6764844 169.791069,69.046875 C167.929746,63.4172656 167,57.0976563 167,50.0898437 C167,43.0820312 167.929746,36.7480469 169.791069,31.0878906 C171.652393,25.4277344 174.366593,20.5923437 177.935502,16.578125 C181.50441,12.5657031 185.865799,9.46609375 191.021499,7.27929687 C196.1772,5.09429688 202.017398,4 208.545755,4 L208.545755,4 Z M208.045007,90 C213.386442,90 218.05097,89.0816476 222.042194,87.243135 C226.031617,85.4046224 229.362138,82.7688787 232.033755,79.3340961 C234.703572,75.8993135 236.698284,71.7576888 238.019691,66.9056064 C239.337496,62.0553318 240,56.6175286 240,50.590389 C240,44.624714 239.339297,39.201373 238.019691,34.3203661 C236.698284,29.4393593 234.703572,25.2670023 232.033755,21.8014874 C229.363938,18.3377803 226.033418,15.6713043 222.042194,13.8020595 C218.05097,11.9346224 213.384641,11 208.045007,11 C202.705373,11 198.037243,11.9346224 194.04782,13.8020595 C190.056596,15.6713043 186.726076,18.3377803 184.056259,21.8014874 C181.384641,25.2670023 179.375527,29.4393593 178.025316,34.3203661 C176.675105,39.201373 176,44.624714 176,50.590389 C176,56.6157208 176.675105,62.0553318 178.025316,66.9056064 C179.375527,71.7576888 181.384641,75.8993135 184.056259,79.3340961 C186.726076,82.7688787 190.056596,85.4046224 194.04782,87.243135 C198.037243,89.0816476 202.703572,90 208.045007,90 L208.045007,90 Z" id="Shape"></path>
                    <path d="M303.569779,93 L283.519731,93 L247,1 L265.349374,1 C266.960539,1 268.317498,1.38916179 269.42204,2.16569201 C270.524793,2.94401559 271.287411,3.928577 271.704524,5.12475634 L289.427334,54.2631579 C290.440577,57.1325536 291.292705,59.942768 291.978345,62.6920078 C292.663985,65.4430409 293.276227,68.1922807 293.813282,70.9415205 C294.350337,68.1922807 294.960789,65.4430409 295.648219,62.6920078 C296.333859,59.942768 297.214629,57.1325536 298.288739,54.2631579 L316.459095,5.12475634 C316.876208,3.928577 317.622714,2.94401559 318.696824,2.16569201 C319.770934,1.38916179 321.052705,1 322.545717,1 L340,1 L303.569779,93 L303.569779,93 Z" id="Shape"></path>
                    <rect id="Rectangle" x="345" y="2" width="23" height="92"></rect>
                    <path d="M383,94 L383,1.44337812 L396.623911,1.44337812 C399.510714,1.44337812 401.403375,2.79654511 402.305502,5.50287908 L403.748904,12.3589251 C405.372731,10.5547025 407.072337,8.90023033 408.845917,7.39731286 C410.619497,5.89439539 412.513962,4.60076775 414.529312,3.51823417 C416.542858,2.43570058 418.707961,1.57869482 421.024621,0.947216891 C423.339477,0.315738964 425.879865,0 428.649392,0 C434.480736,0 439.278243,1.57869482 443.038306,4.73608445 C446.796564,7.89347409 449.609393,12.0882917 451.473186,17.3205374 C452.916588,14.2533589 454.720841,11.6228023 456.885943,9.42706334 C459.051046,7.2331286 461.427247,5.44333973 464.012741,4.05950096 C466.598235,2.67746641 469.34972,1.65447217 472.267196,0.992322457 C475.182868,0.330172745 478.114778,0 481.062927,0 C486.174374,0 490.715678,0.78303263 494.685033,2.34548944 C498.654388,3.90975048 501.992256,6.19389635 504.698634,9.20153551 C507.405013,12.2091747 509.465469,15.8771593 510.878199,20.2072937 C512.290929,24.537428 513,29.4990403 513,35.0921305 L513,94 L490.715678,94 L490.715678,35.0921305 C490.715678,29.1977351 489.422029,24.7629559 486.838339,21.7859885 C484.251041,18.8090211 480.462111,17.3205374 475.469744,17.3205374 C473.183756,17.3205374 471.065564,17.7120537 469.111558,18.4932821 C467.155749,19.2763148 465.441709,20.4039539 463.967634,21.8761996 C462.495364,23.3502495 461.337034,25.1995777 460.494448,27.4241843 C459.651863,29.6487908 459.231472,32.2053743 459.231472,35.0921305 L459.231472,94 L436.860545,94 L436.860545,35.0921305 C436.860545,28.8982342 435.612002,24.3876775 433.116721,21.5604607 C430.619636,18.735048 426.937156,17.3205374 422.065675,17.3205374 C418.875756,17.3205374 415.88611,18.1180038 413.089519,19.7111324 C410.291123,21.304261 407.691195,23.4855662 405.286127,26.2514395 L405.286127,94 L383,94 L383,94 Z" id="Shape"></path>
                </g>
                <rect id="Rectangle" x="345" y="0" width="23" height="19"></rect>
            </g>
        </g>
    </g>
</svg>

<svg height="64" width="64" xmlns="http://www.w3.org/2000/svg" xmlns:xlink="http://www.w3.org/1999/xlink"><linearGradient id="a" gradientUnits="userSpaceOnUse" x1="22.625" x2="22.625" y1="-.173" y2="211.998"><stop offset="0" stop-color="#16b0ed" stop-opacity=".8"/><stop offset="1" stop-color="#0f59b2" stop-opacity=".837"/></linearGradient><linearGradient id="b" gradientUnits="userSpaceOnUse" x1="152.09" x2="152.09" y1="-.148" y2="211.998"><stop offset="0" stop-color="#7db643"/><stop offset="1" stop-color="#367533"/></linearGradient><linearGradient id="c" gradientUnits="userSpaceOnUse" x1="87.475" x2="87.475" y1="-.137" y2="212.054"><stop offset="0" stop-color="#88c649" stop-opacity=".8"/><stop offset="1" stop-color="#439240" stop-opacity=".84"/></linearGradient><g fill-rule="evenodd" transform="matrix(.301563 0 0 .301563 5.613197 .052163)"><path d="m.027 45.46 45.197-45.633v212.17l-45.197-45.103z" fill="url(#a)"/><path d="m129.337 45.89 45.815-46.038-.93 212.147-45.197-45.104z" fill="url(#b)" transform="matrix(-1 0 0 1 304 0)"/><path d="m45.194-.137 117.506 179.3-32.882 32.88-117.568-178.903z" fill="url(#c)"/><path d="m45.234 83.032-.062 7.063-36.282-53.563 3.36-3.422z" fill-opacity=".13"/></g></svg>
